X:7
T:No.17 Heather Breeze
C:reel
M:4/4
L:1/8
K:G
GE|DGBG dGBG|(3GGG BG cAFA|
DGBG dG g2|fdcA BGFE|DGBG dGBG|
(3GGG BG cAFA|DGBd ^cdeg|fdcA BGBd||
g2 gf gbag|fed^c defa|(3ggg fa gbag|
fdcA BGBd|g2 gf gbag|fdfg afd^c|
dggf gbag|[1fdcA BGFE:|[2fdcAG4||
